public/icons/networks/sonic.svg

<svg width="200" height="200" viewBox="0 0 200 200" fill="none" xmlns="http://www.w3.org/2000/svg">
<rect width="200.002" height="200" rx="100" fill="#141416"/>
<path d="M117.857 121.228C84.784 131.15 57.4252 145.623 40.2996 162.58L39.5435 163.333C44.0975 167.638 49.091 171.488 54.4889 174.76L55.6494 173.343C60.3264 167.638 65.3375 162.125 70.5596 156.928C84.573 142.98 100.609 130.905 117.875 121.21L117.857 121.228Z" fill="#F5F5F5"/>
<path d="M12.5012 106.528C13.8199 124.22 20.3959 140.443 30.717 153.638L31.1917 153.165C41.7941 142.718 55.5966 133.215 72.2475 124.938C86.8412 117.675 103.598 111.445 121.655 106.528H12.5012Z" fill="#F5F5F5"/>
<path d="M79.8081 33.815C109.4 63.2675 146.64 82.745 187.485 90.13C182.562 46.4675 145.357 12.5 100.151 12.5C88.2126 12.5 76.8366 14.88 66.4452 19.1675C70.665 24.2425 75.1662 29.1775 79.8081 33.815Z" fill="#F5F5F5"/>
<path d="M40.2996 37.4201C57.4252 54.3951 84.784 68.8501 117.857 78.7901C100.591 69.0776 84.5554 57.0201 70.542 43.0726C65.3375 37.8926 60.3264 32.3801 55.6318 26.6576L54.4713 25.2401C49.0734 28.5126 44.0799 32.3626 39.5435 36.6676L40.2996 37.4201Z" fill="#F5F5F5"/>
<path d="M79.8081 166.185C75.1486 170.822 70.6475 175.758 66.4452 180.833C76.819 185.12 88.2126 187.5 100.151 187.5C145.357 187.5 182.562 153.533 187.503 109.852C146.658 117.237 109.417 136.715 79.8257 166.168L79.8081 166.185Z" fill="#F5F5F5"/>
<path d="M72.2475 75.0625C55.5966 66.785 41.7941 57.2825 31.1917 46.835L30.717 46.3625C20.3959 59.5575 13.8199 75.78 12.5012 93.4725H121.638C103.58 88.555 86.8412 82.325 72.2299 75.045L72.2475 75.0625Z" fill="#F5F5F5"/>
</svg>

<svg width="200" height="200" viewBox="0 0 200 200" fill="none" xmlns="http://www.w3.org/2000/svg"><rect width="200.002" height="200" rx="100" fill="#141416"/><path d="M117.857 121.228C84.784 131.15 57.425 145.623 40.3 162.58l-.756.753c4.553 4.305 9.547 8.155 14.945 11.427l1.16-1.417a220.153 220.153 0 0 1 14.91-16.415c14.014-13.948 30.05-26.023 47.316-35.718l-.018.018Zm-105.356-14.7a86.745 86.745 0 0 0 18.216 47.11l.475-.473c10.602-10.447 24.405-19.95 41.056-28.227 14.593-7.263 31.35-13.493 49.407-18.41H12.501Zm67.307-72.713C109.4 63.268 146.64 82.745 187.485 90.13c-4.923-43.662-42.128-77.63-87.334-77.63a88.153 88.153 0 0 0-33.706 6.668 216.102 216.102 0 0 0 13.363 14.647ZM40.3 37.42c17.125 16.975 44.484 31.43 77.557 41.37-17.266-9.712-33.302-21.77-47.315-35.717a221 221 0 0 1-14.91-16.415l-1.16-1.418a87.938 87.938 0 0 0-14.928 11.428l.756.752Zm39.508 128.765a207.152 207.152 0 0 0-13.363 14.648c10.374 4.287 21.768 6.667 33.706 6.667 45.206 0 82.411-33.967 87.352-77.648-40.845 7.385-78.086 26.863-107.677 56.316l-.018.017Zm-7.56-91.122c-16.651-8.278-30.454-17.78-41.056-28.228l-.475-.473a86.744 86.744 0 0 0-18.216 47.11h109.137C103.58 88.555 86.841 82.325 72.23 75.046l.017.017Z" fill="#F5F5F5"/></svg>
